X: 7311
T: Cleveland Park
R: jig
M: 6/8
K: Aminor
EAB cBA|FAB cBA|^FAB cBA|BdB GAB|
EAB cBA|FAB cBA|BdB GAB|BAG A3:|
Ace aec|def ecA|FGA GAB|cBA ^FAB|
Ace aec|def ecA|FGA GAB|BAG A3|
Ace aec|def ecA|FGA GAB|cBA BA^F|
EAB cBA|FAB cBA|BdB GAB|BAG A3|

